; generated by PrusaSlicer 2.5.0+win64 on 2022-12-09 at 18:12:59 UTC

; 

; external perimeters extrusion width = 0.45mm
; perimeters extrusion width = 0.45mm
; infill extrusion width = 0.45mm
; solid infill extrusion width = 0.45mm
; top infill extrusion width = 0.40mm
; support material extrusion width = 0.35mm
; first layer extrusion width = 0.42mm

M73 P0 R24
M73 Q0 S24
M201 X1000 Y1000 Z200 E5000 ; sets maximum accelerations, mm/sec^2
M203 X200 Y200 Z12 E120 ; sets maximum feedrates, mm / sec
M204 P1250 R1250 T1250 ; sets acceleration (P, T) and retract acceleration (R), mm/sec^2
M205 X8.00 Y8.00 Z0.40 E4.50 ; sets the jerk limits, mm/sec
M205 S0 T0 ; sets the minimum extruding and travel feed rate, mm/sec
M107
;TYPE:Custom
M862.3 P "MK3S" ; printer model check
M862.1 P0.4 ; nozzle diameter check
M115 U3.10.1 ; tell printer latest fw version
G90 ; use absolute coordinates
M83 ; extruder relative mode
M104 S215 ; set extruder temp
M140 S60 ; set bed temp
M190 S60 ; wait for bed temp
M109 S215 ; wait for extruder temp
G28 W ; home all without mesh bed level
G80 ; mesh bed leveling
G1 Z0.2 F720
G1 Y-3 F1000 ; go outside print area
G92 E0
G1 X60 E9 F1000 ; intro line
G1 X100 E12.5 F1000 ; intro line
G92 E0
M221 S95

; Don't change E values below. Excessive value can damage the printer.
M907 E430 ; set extruder motor current
G21 ; set units to millimeters
G90 ; use absolute coordinates
M83 ; use relative distances for extrusion
M900 K0.05 ; Filament gcode LA 1.5
M900 K30 ; Filament gcode LA 1.0
M107
;LAYER_CHANGE
;Z:0.2
;HEIGHT:0.2
;BEFORE_LAYER_CHANGE
G92 E0.0
;0.2


G1 E-.8 F2100
G1 Z.4 F720
;AFTER_LAYER_CHANGE
;0.2
; printing object dc_motor_gear_to_m4_adapter v4.obj id:0 copy 0
G1 X131.94 Y91.074 F10800
G1 Z.2 F720
G1 E.8 F2100
M204 S800
;TYPE:Support material
;WIDTH:0.42
G1 F1200
G1 X136.597 Y91.074 E.14602
G1 X136.597 Y93.403 E.07301
G1 X138.926 Y93.403 E.07301
G1 X138.926 Y98.06 E.14602
G1 X141.254 Y98.06 E.07301
G1 X141.254 Y104.954 E.21616
G1 X134.268 Y104.954 E.21903
G1 X134.268 Y109.611 E.14602
G1 X131.94 Y109.611 E.07301
G1 X131.94 Y111.94 E.07301
G1 X129.611 Y111.94 E.07301
G1 X129.611 Y114.268 E.07301
G1 X124.954 Y114.268 E.14602
G1 X124.954 Y121.254 E.21903
G1 X118.06 Y121.254 E.21616
G1 X118.06 Y118.926 E.07301
G1 X113.403 Y118.926 E.14602
G1 X113.403 Y116.597 E.07301
G1 X111.074 Y116.597 E.07301
G1 X111.074 Y111.94 E.14602
G1 X108.746 Y111.94 E.07301
G1 X108.746 Y105.046 E.21616
G1 X115.732 Y105.046 E.21903
G1 X115.732 Y100.389 E.14602
G1 X118.06 Y100.389 E.07301
G1 X118.06 Y98.06 E.07301
G1 X120.389 Y98.06 E.07301
G1 X120.389 Y95.732 E.07301
G1 X125.046 Y95.732 E.14602
G1 X125.046 Y88.746 E.21903
G1 X131.94 Y88.746 E.21616
G1 X131.94 Y91.018 E.07124
M204 S1000
G1 X124.981 Y100.946 F10800
M204 S800
G1 F1200
G1 X124.384 Y100.993 E.01877
G1 X124.237 Y101.025 E.00474
G1 X123.729 Y101.15 E.01639
G1 X123.176 Y101.379 E.01877
G1 X122.602 Y101.731 E.02113
G1 X122.12 Y102.146 E.01995
G1 X121.709 Y102.632 E.01995
G1 X121.396 Y103.143 E.01877
G1 X121.15 Y103.729 E.01995
G1 X120.993 Y104.384 E.02113
G1 X120.946 Y105.019 E.01995
G1 X120.998 Y105.653 E.01995
G1 X121.138 Y106.235 E.01877
G1 X121.379 Y106.824 E.01995
G1 X121.731 Y107.398 E.02113
G1 X122.146 Y107.88 E.01995
G1 X122.602 Y108.269 E.01877
G1 X122.729 Y108.351 E.00474
G1 X123.176 Y108.621 E.01639
M73 Q1 S24
G1 X123.729 Y108.85 E.01877
G1 X124.347 Y109.002 E.01995
G1 X124.981 Y109.054 E.01995
G1 X125.653 Y109.002 E.02113
G1 X126.271 Y108.85 E.01995
G1 X126.824 Y108.621 E.01877
G1 X126.954 Y108.545 E.00474
G1 X127.398 Y108.269 E.01639
G1 X127.854 Y107.88 E.01877
G1 X128.269 Y107.398 E.01995
M73 P1 R24
G1 X128.621 Y106.824 E.02113
G1 X128.85 Y106.271 E.01877
G1 X128.888 Y106.125 E.00474
G1 X129.007 Y105.616 E.01639
G1 X129.054 Y105.019 E.01877
G1 X129.002 Y104.347 E.02113
G1 X128.85 Y103.729 E.01995
G1 X128.621 Y103.176 E.01877
G1 X128.291 Y102.632 E.01995
G1 X127.88 Y102.146 E.01995
G1 X127.368 Y101.709 E.02113
G1 X126.824 Y101.379 E.01995
G1 X126.235 Y101.138 E.01995
G1 X125.653 Y100.998 E.01877
G1 X125.038 Y100.947 E.01936
M204 S1000
G1 X140.837 Y104.785 F10800
M204 S800
G1 F1200
G1 X140.837 Y98.399 E.2002
G1 X140.083 Y98.399 E.02365
G1 X140.083 Y104.615 E.19488
G1 X139.329 Y104.615 E.02365
G1 X139.329 Y98.399 E.19488
G1 X138.586 Y98.399 E.02329
G1 X138.586 Y93.742 E.14602
G1 X138.575 Y104.615 E.3409
G1 X137.821 Y104.615 E.02365
G1 X137.821 Y93.742 E.3409
G1 X137.067 Y93.742 E.02365
G1 X137.067 Y104.615 E.3409
G1 X136.312 Y104.615 E.02365
G1 X136.312 Y93.742 E.3409
G1 X136.258 Y93.742 E.00172
G1 X136.258 Y91.414 E.07301
G1 X135.558 Y91.414 E.02193
G1 X135.558 Y104.615 E.41391
G1 X134.804 Y104.615 E.02365
G1 X134.804 Y91.414 E.41391
G1 X134.05 Y91.414 E.02365
G1 X134.05 Y104.615 E.41391
G1 X133.929 Y104.615 E.00379
G1 X133.929 Y109.272 E.14602
G1 X133.296 Y109.272 E.01986
G1 X133.296 Y91.414 E.55993
G1 X132.542 Y91.414 E.02365
G1 X132.542 Y109.272 E.55993
G1 X131.787 Y109.272 E.02365
G1 X131.787 Y91.414 E.55993
G1 X131.601 Y91.414 E.00586
G1 X131.601 Y89.085 E.07301
G1 X131.033 Y89.085 E.01779
G1 X131.033 Y111.601 E.70595
G1 X130.279 Y111.601 E.02365
G1 X130.279 Y89.085 E.70595
G1 X129.525 Y89.085 E.02365
G1 X129.525 Y111.601 E.70595
G1 X129.272 Y111.601 E.00793
G1 X129.272 Y113.929 E.07301
G1 X128.771 Y113.929 E.01571
G1 X128.771 Y107.235 E.2099
G1 X128.536 Y107.609 E.01385
G1 X128.13 Y108.084 E.01961
G1 X128.017 Y108.187 E.0048
G1 X128.017 Y113.929 E.18003
G1 X127.262 Y113.929 E.02365
G1 X127.262 Y108.754 E.16227
G1 X126.966 Y108.93 E.0108
G1 X126.508 Y109.119 E.01553
M73 Q2 S24
G1 X126.508 Y113.929 E.15081
G1 X125.754 Y113.929 E.02365
M73 P2 R24
G1 X125.754 Y109.326 E.14432
G1 X125 Y109.394 E.02374
G1 X125 Y113.929 E.1422
G1 X124.615 Y113.929 E.01207
G1 X124.615 Y120.915 E.21903
G1 X124.246 Y120.915 E.01157
G1 X124.246 Y109.326 E.36335
G1 X123.673 Y109.189 E.01848
G1 X123.492 Y109.119 E.00609
G1 X123.492 Y120.915 E.36984
G1 X122.738 Y120.915 E.02365
G1 X122.738 Y108.754 E.3813
G1 X122.391 Y108.536 E.01283
G1 X121.983 Y108.187 E.01682
G1 X121.983 Y120.915 E.39906
G1 X121.229 Y120.915 E.02365
G1 X121.229 Y107.235 E.42892
G1 X121.07 Y106.966 E.00979
G1 X120.811 Y106.327 E.02162
G1 X120.655 Y105.656 E.02162
G1 X120.606 Y104.968 E.02162
G1 X120.655 Y104.344 E.01961
G1 X120.811 Y103.673 E.02162
G1 X121.07 Y103.034 E.02162
G1 X121.229 Y102.765 E.00979
G1 X121.229 Y96.071 E.2099
G1 X121.983 Y96.071 E.02365
G1 X121.983 Y101.813 E.18003
G1 X122.391 Y101.464 E.01682
G1 X122.738 Y101.246 E.01283
G1 X122.738 Y96.071 E.16227
G1 X123.492 Y96.071 E.02365
G1 X123.492 Y100.881 E.15081
G1 X123.673 Y100.811 E.00609
G1 X124.246 Y100.674 E.01848
G1 X124.246 Y96.071 E.14432
G1 X125 Y96.071 E.02365
G1 X125 Y100.606 E.1422
G1 X125.754 Y100.674 E.02374
G1 X125.754 Y89.085 E.36335
G1 X126.508 Y89.085 E.02365
G1 X126.508 Y100.881 E.36984
G1 X126.966 Y101.07 E.01553
G1 X127.262 Y101.246 E.0108
G1 X127.262 Y89.085 E.3813
G1 X128.017 Y89.085 E.02365
G1 X128.017 Y101.813 E.39906
G1 X128.13 Y101.916 E.0048
G1 X128.536 Y102.391 E.01961
G1 X128.771 Y102.765 E.01385
G1 X128.771 Y88.916 E.43424
M204 S1000
;WIPE_START
G1 F8640
G1 X128.771 Y92.207 E-.76
;WIPE_END
G1 E-.04 F2100
G1 Z.6 F720
G1 X120.475 Y121.084 F10800
G1 Z.2 F720
G1 E.8 F2100
M204 S800
G1 F1200
G1 X120.475 Y98.399 E.71127
G1 X119.721 Y98.399 E.02365
G1 X119.721 Y120.915 E.70595
G1 X118.967 Y120.915 E.02365
G1 X118.967 Y98.399 E.70595
G1 X118.399 Y98.399 E.01779
G1 X118.399 Y100.728 E.07301
G1 X118.213 Y100.728 E.00586
G1 X118.213 Y118.586 E.55993
G1 X117.458 Y118.586 E.02365
M73 P3 R24
M73 Q3 S24
G1 X117.458 Y100.728 E.55993
G1 X116.704 Y100.728 E.02365
G1 X116.704 Y118.586 E.55993
G1 X115.95 Y118.586 E.02365
G1 X115.95 Y105.385 E.41391
G1 X115.196 Y105.385 E.02365
G1 X115.196 Y118.586 E.41391
G1 X114.442 Y118.586 E.02365
G1 X114.442 Y105.385 E.41391
G1 X113.688 Y105.385 E.02365
G1 X113.688 Y116.258 E.3409
G1 X112.933 Y116.258 E.02365
G1 X112.933 Y105.385 E.3409
G1 X112.179 Y105.385 E.02365
G1 X112.179 Y116.258 E.3409
G1 X111.425 Y116.258 E.02365
G1 X111.425 Y105.385 E.3409
G1 X110.671 Y105.385 E.02365
G1 X110.671 Y111.601 E.19488
G1 X109.917 Y111.601 E.02365
G1 X109.917 Y105.385 E.19488
G1 X109.163 Y105.385 E.02365
G1 X109.163 Y111.77 E.2002
M204 S1000
;WIPE_START
G1 F8640
M73 P3 R23
G1 X109.163 Y108.479 E-.76
;WIPE_END
G1 E-.04 F2100
G1 Z.6 F720
G1 X127.202 Y104.288 F10800
G1 Z.2 F720
G1 E.8 F2100
M204 S800
;TYPE:External perimeter
;WIDTH:0.553547
G1 F1200
G1 X127.568 Y103.875 E.02343
G1 X127.619 Y103.731 E.0065
;WIDTH:0.520003
G1 X127.67 Y103.586 E.00607
;WIDTH:0.486459
G1 X127.721 Y103.442 E.00565
;WIDTH:0.452915
G1 X127.708 Y103.367 E.00259
;WIDTH:0.41922
G1 X127.695 Y103.292 E.00238
;WIDTH:0.428526
G1 X127.727 Y103.387 E.00321
;WIDTH:0.471528
G1 X127.759 Y103.482 E.00357
;WIDTH:0.51453
G1 X127.792 Y103.577 E.00393
;WIDTH:0.553547
G1 X128.066 Y104.429 E.038
;WIDTH:0.510914
G1 X128.106 Y104.562 E.00542
;WIDTH:0.46828
G1 X128.147 Y104.695 E.00492
;WIDTH:0.425646
G1 X128.187 Y104.828 E.00443
;WIDTH:0.423279
G1 X128.154 Y104.743 E.0029
;WIDTH:0.463545
G1 X128.12 Y104.658 E.00321
;WIDTH:0.496839
G1 X128.068 Y104.61 E.00267
;WIDTH:0.530132
G1 X128.016 Y104.562 E.00287
;WIDTH:0.553547
G1 X127.716 Y104.394 E.01459
G1 X127.261 Y104.3 E.01971
M204 S1000
G1 X127.562 Y104.112 F10800
;WIPE_START
G1 F8640
G1 X127.568 Y103.875 E-.1211
G1 X127.619 Y103.731 E-.03535
G1 X127.67 Y103.586 E-.03535
G1 X127.721 Y103.442 E-.03535
G1 X127.708 Y103.367 E-.01754
G1 X127.695 Y103.292 E-.01754
G1 X127.727 Y103.387 E-.02313
G1 X127.759 Y103.482 E-.02313
G1 X127.792 Y103.577 E-.02313
G1 X128.066 Y104.429 E-.20664
G1 X128.106 Y104.562 E-.03213
G1 X128.147 Y104.695 E-.03213
G1 X128.187 Y104.828 E-.03213
G1 X128.154 Y104.743 E-.02116
G1 X128.12 Y104.658 E-.02116
G1 X128.068 Y104.61 E-.01635
G1 X128.016 Y104.562 E-.01635
G1 X127.826 Y104.456 E-.05031
;WIPE_END
G1 E-.04 F2100
G1 Z.6 F720
G1 X127.68 Y106.734 F10800
G1 Z.2 F720
G1 E.8 F2100
M204 S800
;WIDTH:0.385524
G1 F1200
G1 X127.457 Y107.035 E.01069
M204 S1000
;WIPE_START
G1 F8640
G1 X127.68 Y106.734 E-.08662
;WIPE_END
G1 E-.71338 F2100
G1 Z.6 F720
G1 X127.21 Y105.726 F10800
G1 Z.2 F720
G1 E.8 F2100
M204 S800
;WIDTH:0.557464
G1 F1200
G1 X127.74 Y105.601 E.02329
G1 X127.866 Y105.514 E.00656
;WIDTH:0.523138
G1 X127.992 Y105.427 E.00612
;WIDTH:0.488812
G1 X128.118 Y105.34 E.00568
;WIDTH:0.454485
G1 X128.151 Y105.271 E.00261
;WIDTH:0.420005
G1 X128.184 Y105.202 E.00239
;WIDTH:0.429994
G1 X128.154 Y105.298 E.00325
;WIDTH:0.474464
G1 X128.123 Y105.395 E.00362
;WIDTH:0.518933
G1 X128.093 Y105.491 E.00399
;WIDTH:0.557464
G1 X127.822 Y106.303 E.03664
;WIDTH:0.513834
G1 X127.775 Y106.447 E.00591
;WIDTH:0.470204
G1 X127.728 Y106.59 E.00537
;WIDTH:0.426574
G1 X127.68 Y106.734 E.00482
;WIDTH:0.424222
G1 X127.703 Y106.645 E.00292
;WIDTH:0.4655
G1 X127.727 Y106.555 E.00324
;WIDTH:0.498208
G1 X127.714 Y106.489 E.00258
;WIDTH:0.530915
G1 X127.701 Y106.422 E.00276
;WIDTH:0.557464
G1 X127.555 Y106.106 E.0149
G1 X127.25 Y105.77 E.01939
M204 S1000
G1 X127.604 Y105.792 F10800
;WIPE_START
G1 F8640
G1 X127.74 Y105.601 E-.11958
G1 X127.866 Y105.514 E-.0354
G1 X127.992 Y105.427 E-.0354
G1 X128.118 Y105.34 E-.0354
G1 X128.151 Y105.271 E-.01759
G1 X128.184 Y105.202 E-.01759
G1 X128.154 Y105.298 E-.02328
G1 X128.123 Y105.395 E-.02328
G1 X128.093 Y105.491 E-.02328
G1 X127.822 Y106.303 E-.19774
G1 X127.775 Y106.447 E-.03488
G1 X127.728 Y106.59 E-.03488
G1 X127.68 Y106.734 E-.03488
G1 X127.703 Y106.645 E-.02126
G1 X127.727 Y106.555 E-.02126
G1 X127.714 Y106.489 E-.01571
G1 X127.701 Y106.422 E-.01571
G1 X127.605 Y106.214 E-.05289
;WIPE_END
G1 E-.04 F2100
G1 Z.6 F720
G1 X126.176 Y107.965 F10800
G1 Z.2 F720
G1 E.8 F2100
M204 S800
;WIDTH:0.385526
G1 F1200
G1 X125.821 Y108.085 E.01069
M204 S1000
G1 X126.176 Y107.965 F10800
M204 S800
;WIDTH:0.420007
G1 F1200
G1 X126.231 Y107.913 E.00239
;WIDTH:0.454487
G1 X126.286 Y107.86 E.00261
;WIDTH:0.486711
G1 X126.315 Y107.798 E.00251
;WIDTH:0.518935
G1 X126.343 Y107.737 E.00269
;WIDTH:0.557464
G1 X126.417 Y107.396 E.01491
G1 X126.36 Y106.878 E.02231
G1 X126.863 Y107.097 E.02346
G1 X127.016 Y107.1 E.00656
;WIDTH:0.523138
G1 X127.169 Y107.104 E.00612
;WIDTH:0.488812
G1 X127.323 Y107.107 E.00568
;WIDTH:0.454486
G1 X127.39 Y107.071 E.00261
;WIDTH:0.420005
G1 X127.457 Y107.035 E.00239
;WIDTH:0.429994
G1 X127.376 Y107.095 E.00325
;WIDTH:0.474463
G1 X127.295 Y107.155 E.00362
;WIDTH:0.518932
G1 X127.214 Y107.215 E.00399
;WIDTH:0.557464
G1 X126.524 Y107.71 E.03633
;WIDTH:0.51448
G1 X126.408 Y107.795 E.00564
;WIDTH:0.471495
G1 X126.292 Y107.88 E.00512
;WIDTH:0.428511
G1 X126.225 Y107.93 E.00269
M204 S1000
;WIPE_START
G1 F8640
G1 X126.231 Y107.913 E-.00425
G1 X126.286 Y107.86 E-.01759
G1 X126.315 Y107.798 E-.01569
G1 X126.343 Y107.737 E-.01569
G1 X126.417 Y107.396 E-.08045
G1 X126.36 Y106.878 E-.1204
G1 X126.863 Y107.097 E-.12664
G1 X127.016 Y107.1 E-.03539
G1 X127.169 Y107.104 E-.03539
G1 X127.323 Y107.107 E-.03539
G1 X127.39 Y107.071 E-.01759
G1 X127.457 Y107.035 E-.01759
G1 X127.376 Y107.095 E-.02328
G1 X127.295 Y107.155 E-.02328
G1 X127.214 Y107.215 E-.02328
G1 X126.622 Y107.64 E-.16807
;WIPE_END
G1 E-.04 F2100
G1 Z.6 F720
G1 X124.209 Y108.09 F10800
G1 Z.2 F720
G1 E.8 F2100
M204 S800
;WIDTH:0.385524
G1 F1200
G1 X123.851 Y107.978 E.01069
M204 S1000
;WIPE_START
G1 F8640
G1 X124.209 Y108.09 E-.08662
;WIPE_END
G1 E-.71338 F2100
G1 Z.6 F720
G1 X124.997 Y107.315 F10800
G1 Z.2 F720
G1 E.8 F2100
M204 S800
;WIDTH:0.553566
G1 F1200
G1 X125.311 Y107.831 E.02566
G1 X125.474 Y107.952 E.00863
;WIDTH:0.508613
G1 X125.637 Y108.073 E.00787
;WIDTH:0.463659
G1 X125.729 Y108.079 E.00321
;WIDTH:0.423304
G1 X125.821 Y108.085 E.0029
;WIDTH:0.430709
G1 X125.711 Y108.086 E.00354
;WIDTH:0.478469
G1 X125.601 Y108.088 E.00398
;WIDTH:0.526229
G1 X125.491 Y108.089 E.00442
;WIDTH:0.553566
G1 X124.603 Y108.094 E.03767
;WIDTH:0.511556
G1 X124.472 Y108.092 E.00513
;WIDTH:0.469545
G1 X124.34 Y108.091 E.00467
;WIDTH:0.427535
G1 X124.209 Y108.09 E.00421
;WIDTH:0.419224
G1 X124.284 Y108.08 E.00238
;WIDTH:0.452923
G1 X124.359 Y108.069 E.00259
;WIDTH:0.485481
G1 X124.42 Y108.035 E.00258
;WIDTH:0.518038
G1 X124.481 Y108 E.00277
;WIDTH:0.553566
G1 X124.736 Y107.77 E.01458
G1 X124.967 Y107.367 E.01974
M204 S1000
G1 X125.056 Y107.71 F10800
;WIPE_START
G1 F8640
G1 X125.311 Y107.831 E-.13339
G1 X125.474 Y107.952 E-.04694
G1 X125.637 Y108.073 E-.04694
G1 X125.729 Y108.079 E-.02119
G1 X125.821 Y108.085 E-.02119
G1 X125.711 Y108.086 E-.02538
G1 X125.601 Y108.088 E-.02538
G1 X125.491 Y108.089 E-.02538
G1 X124.603 Y108.094 E-.20488
G1 X124.472 Y108.092 E-.0304
G1 X124.34 Y108.091 E-.0304
G1 X124.209 Y108.09 E-.0304
G1 X124.284 Y108.08 E-.01754
G1 X124.359 Y108.069 E-.01754
G1 X124.42 Y108.035 E-.0162
G1 X124.481 Y108 E-.0162
G1 X124.644 Y107.853 E-.05063
;WIPE_END
G1 E-.04 F2100
G1 Z.6 F720
G1 X122.543 Y107.034 F10800
G1 Z.2 F720
M73 Q3 S23
G1 E.8 F2100
M204 S800
;WIDTH:0.38578
G1 F1200
G1 X122.32 Y106.733 E.01068
M204 S1000
G1 X122.543 Y107.034 F10800
M204 S800
;WIDTH:0.420155
G1 F1200
G1 X122.61 Y107.07 E.00239
;WIDTH:0.45453
G1 X122.677 Y107.107 E.0026
;WIDTH:0.486901
G1 X122.745 Y107.115 E.00253
;WIDTH:0.519272
G1 X122.813 Y107.123 E.00271
;WIDTH:0.557448
G1 X123.16 Y107.088 E.01492
G1 X123.634 Y106.874 E.02228
G1 X123.586 Y107.473 E.02573
G1 X123.647 Y107.667 E.0087
;WIDTH:0.511472
G1 X123.708 Y107.861 E.00792
;WIDTH:0.465496
G1 X123.779 Y107.92 E.00323
;WIDTH:0.424223
G1 X123.851 Y107.978 E.00292
;WIDTH:0.432269
G1 X123.761 Y107.914 E.00358
;WIDTH:0.481588
G1 X123.671 Y107.849 E.00404
;WIDTH:0.530907
G1 X123.581 Y107.785 E.00449
;WIDTH:0.557448
G1 X122.893 Y107.287 E.03632
;WIDTH:0.514531
G1 X122.776 Y107.203 E.00564
;WIDTH:0.471614
G1 X122.66 Y107.118 E.00513
;WIDTH:0.428697
G1 X122.592 Y107.069 E.00269
M204 S1000
;WIPE_START
G1 F8640
G1 X122.61 Y107.07 E-.00423
G1 X122.677 Y107.107 E-.01757
G1 X122.745 Y107.115 E-.0158
G1 X122.813 Y107.123 E-.0158
G1 X123.16 Y107.088 E-.08053
G1 X123.634 Y106.874 E-.12025
G1 X123.586 Y107.473 E-.13887
G1 X123.647 Y107.667 E-.04695
G1 X123.708 Y107.861 E-.04695
