; generated by PrusaSlicer 2.5.0+win64 on 2023-01-07 at 21:10:53 UTC

; 

; external perimeters extrusion width = 0.45mm
; perimeters extrusion width = 0.45mm
; infill extrusion width = 0.45mm
; solid infill extrusion width = 0.45mm
; top infill extrusion width = 0.40mm
; first layer extrusion width = 0.42mm

M73 P0 R12
M73 Q0 S13
M201 X1000 Y1000 Z200 E5000 ; sets maximum accelerations, mm/sec^2
M203 X200 Y200 Z12 E120 ; sets maximum feedrates, mm / sec
M204 P1250 R1250 T1250 ; sets acceleration (P, T) and retract acceleration (R), mm/sec^2
M205 X8.00 Y8.00 Z0.40 E4.50 ; sets the jerk limits, mm/sec
M205 S0 T0 ; sets the minimum extruding and travel feed rate, mm/sec
M107
;TYPE:Custom
M862.3 P "MK3S" ; printer model check
M862.1 P0.4 ; nozzle diameter check
M115 U3.10.1 ; tell printer latest fw version
G90 ; use absolute coordinates
M83 ; extruder relative mode
M104 S215 ; set extruder temp
M140 S60 ; set bed temp
M190 S60 ; wait for bed temp
M109 S215 ; wait for extruder temp
G28 W ; home all without mesh bed level
G80 ; mesh bed leveling
G1 Z0.2 F720
G1 Y-3 F1000 ; go outside print area
G92 E0
G1 X60 E9 F1000 ; intro line
M73 Q0 S12
G1 X100 E12.5 F1000 ; intro line
G92 E0
M221 S95

; Don't change E values below. Excessive value can damage the printer.

M907 E538 ; set extruder motor current
G21 ; set units to millimeters
G90 ; use absolute coordinates
M83 ; use relative distances for extrusion
M900 K0.05 ; Filament gcode LA 1.5
M900 K30 ; Filament gcode LA 1.0
M107
;LAYER_CHANGE
;Z:0.2
;HEIGHT:0.2
;BEFORE_LAYER_CHANGE
G92 E0.0
;0.2


G1 E-.8 F2100
G1 Z.4 F720
;AFTER_LAYER_CHANGE
;0.2
; printing object pointer_calib.obj id:0 copy 0
G1 X131.281 Y94.201 F10800
G1 Z.2 F720
G1 E.8 F2100
M204 S800
;TYPE:Perimeter
;WIDTH:0.419999
G1 F1200
G1 X132.1 Y94.595 E.02849
G1 X133.398 Y95.306 E.0464
G1 X134.301 Y95.866 E.03332
G1 X134.305 Y96.44 E.01801
G1 X134.392 Y97.175 E.02321
G1 X134.495 Y97.503 E.01078
G1 X134.741 Y98.129 E.02109
G1 X135.243 Y98.858 E.02774
G1 X135.805 Y99.381 E.02409
M73 Q1 S12
G1 X138.254 Y101.403 E.09954
G1 X140.423 Y103.65 E.09794
G1 X142.34 Y106.145 E.09864
M73 P1 R12
G1 X142.849 Y106.891 E.02835
G1 X143.329 Y107.812 E.03254
G1 X143.468 Y108.368 E.01797
G1 X143.57 Y108.911 E.01734
G1 X143.577 Y109.764 E.02673
G1 X143.354 Y110.729 E.03107
G1 X142.911 Y111.615 E.03107
G1 X142.242 Y112.409 E.03254
G1 X138.697 Y115.733 E.15238
G1 X138.296 Y115.986 E.01486
G1 X137.881 Y116.087 E.01339
G1 X137.459 Y116.019 E.01339
G1 X137.04 Y115.799 E.01486
G1 X133.877 Y113.287 E.12664
G1 X133.334 Y112.973 E.01967
G1 X132.678 Y112.784 E.0214
G1 X132.135 Y112.751 E.01708
G1 X131.819 Y112.793 E.00997
G1 X131.267 Y112.932 E.01786
G1 X130.716 Y113.204 E.01926
G1 X130.195 Y113.645 E.0214
G1 X129.837 Y114.125 E.0188
G1 X129.567 Y114.591 E.01687
G1 X128.867 Y115.501 E.03601
G1 X127.996 Y116.167 E.03438
G1 X126.983 Y116.587 E.03438
G1 X125.845 Y116.736 E.03601
G1 X120.336 Y116.736 E.17272
G1 X119.417 Y116.639 E.02896
G1 X118.579 Y116.366 E.02766
G1 X117.815 Y115.924 E.02766
G1 X117.161 Y115.333 E.02766
G1 X116.62 Y114.584 E.02895
G1 X114.999 Y111.735 E.10277
G1 X114.736 Y111.004 E.02437
G1 X114.666 Y110.273 E.02301
G1 X114.778 Y109.548 E.02301
G1 X115.049 Y108.909 E.02175
G1 X115.316 Y108.421 E.01743
G1 X115.694 Y107.512 E.03089
G1 X115.846 Y106.658 E.02719
G1 X115.827 Y106.07 E.01843
G1 X115.781 Y105.531 E.01698
G1 X115.532 Y104.7 E.02719
G1 X115.016 Y103.785 E.03292
G1 X107.736 Y93.99 E.38266
G1 X107.072 Y93.196 E.03245
G1 X108.071 Y93.269 E.03139
G1 X122.468 Y93.311 E.45141
G1 X122.976 Y93.366 E.01602
G1 X123.487 Y93.513 E.01669
G1 X127.245 Y95.018 E.12692
G1 X128.106 Y95.246 E.02792
G1 X128.946 Y95.272 E.02634
G1 X129.771 Y95.112 E.02634
G1 X130.54 Y94.774 E.02634
G1 X131.122 Y94.358 E.02243
G1 X131.238 Y94.243 E.00513
M204 S1000
G1 X131.189 Y93.739 F10800
M204 S800
;TYPE:External perimeter
G1 F1200
G1 X132.273 Y94.259 E.0377
G1 X133.588 Y94.98 E.04703
G1 X134.678 Y95.656 E.04022
G1 X134.68 Y96.396 E.02321
G1 X134.766 Y97.131 E.02321
G1 X135.055 Y97.921 E.02636
G1 X135.5 Y98.582 E.02499
G1 X136.045 Y99.09 E.02337
G1 X138.51 Y101.125 E.10021
G1 X140.709 Y103.403 E.09928
G1 X142.645 Y105.923 E.09964
G1 X143.173 Y106.697 E.02938
G1 X143.684 Y107.677 E.03464
G1 X143.896 Y108.526 E.02743
G1 X143.947 Y108.908 E.0121
G1 X143.955 Y109.805 E.02814
G1 X143.711 Y110.858 E.03387
G1 X143.228 Y111.824 E.03387
G1 X142.517 Y112.669 E.03464
G1 X139.014 Y115.953 E.15054
G1 X138.615 Y116.261 E.0158
G1 X138.268 Y116.407 E.01181
G1 X137.896 Y116.466 E.01181
G1 X137.521 Y116.436 E.01181
G1 X137.163 Y116.319 E.01181
G1 X136.822 Y116.108 E.01258
G1 X133.68 Y113.608 E.1259
G1 X133.221 Y113.332 E.01679
G1 X132.656 Y113.16 E.01852
G1 X132.112 Y113.128 E.01708
G1 X131.425 Y113.274 E.02204
G1 X130.953 Y113.498 E.01637
G1 X130.496 Y113.872 E.01852
G1 X130.163 Y114.315 E.01737
G1 X129.881 Y114.801 E.01763
G1 X129.135 Y115.77 E.03834
G1 X128.186 Y116.497 E.03749
G1 X127.081 Y116.954 E.03749
G1 X125.869 Y117.113 E.03834
G1 X120.316 Y117.113 E.17412
G1 X119.338 Y117.01 E.03083
G1 X118.424 Y116.712 E.03015
G1 X117.592 Y116.231 E.03015
G1 X116.879 Y115.586 E.03015
G1 X116.303 Y114.789 E.03083
G1 X114.653 Y111.888 E.10463
G1 X114.366 Y111.087 E.02669
M73 Q2 S12
G1 X114.286 Y110.262 E.02597
G1 X114.413 Y109.444 E.02597
G1 X114.702 Y108.762 E.02323
G1 X114.97 Y108.271 E.01752
G1 X115.322 Y107.446 E.02815
M73 P2 R12
G1 X115.474 Y106.592 E.02719
G1 X115.42 Y105.639 E.02993
G1 X115.171 Y104.808 E.02719
G1 X114.714 Y104.01 E.02883
G1 X107.434 Y94.215 E.38266
G1 X106.776 Y93.444 E.03176
G1 X106.375 Y93.122 E.01612
G1 X106.072 Y92.697 E.01638
G1 X106.614 Y92.698 E.01698
G1 X107.1 Y92.82 E.01573
G1 X108.072 Y92.892 E.03055
G1 X122.493 Y92.934 E.45216
G1 X123.048 Y92.996 E.01751
G1 X123.617 Y93.158 E.01855
G1 X127.385 Y94.668 E.1273
G1 X128.124 Y94.869 E.024
G1 X128.88 Y94.9 E.02373
G1 X129.625 Y94.764 E.02373
G1 X130.321 Y94.467 E.02373
G1 X130.903 Y94.052 E.02243
G1 X131.148 Y93.783 E.0114
M204 S1000
G1 X131.366 Y94.097 F10800
;WIPE_START
G1 F8640
G1 X132.273 Y94.259 E-.28194
G1 X133.588 Y94.98 E-.34638
G1 X134.073 Y95.281 E-.13168
;WIPE_END
G1 E-.04 F2100
G1 Z.6 F720
G1 X137.247 Y106.855 F10800
G1 Z.2 F720
G1 E.8 F2100
M204 S800
;TYPE:Perimeter
G1 F1200
G1 X137.315 Y106.831 E.00226
G1 X137.972 Y106.745 E.02077
G1 X138.527 Y106.792 E.01746
G1 X139.009 Y106.87 E.01533
G1 X139.666 Y107.142 E.0223
G1 X140.358 Y107.649 E.02689
G1 X140.846 Y108.253 E.02434
G1 X140.969 Y108.445 E.00716
G1 X141.241 Y109.102 E.02229
G1 X141.372 Y109.949 E.02689
G1 X141.28 Y110.802 E.02689
G1 X140.975 Y111.587 E.02639
G1 X140.463 Y112.293 E.02737
G1 X139.794 Y112.831 E.02689
G1 X139.01 Y113.176 E.02689
G1 X138.162 Y113.307 E.02689
G1 X137.31 Y113.215 E.02689
G1 X136.51 Y112.904 E.02689
G1 X135.818 Y112.398 E.02689
G1 X135.426 Y111.919 E.0194
G1 X135.188 Y111.556 E.01361
G1 X134.935 Y110.945 E.02074
G1 X134.837 Y110.349 E.01893
G1 X134.804 Y109.949 E.01257
G1 X134.897 Y109.245 E.02229
G1 X135.207 Y108.445 E.02689
G1 X135.714 Y107.753 E.02689
G1 X136.382 Y107.216 E.02689
G1 X136.956 Y106.957 E.01973
G1 X137.191 Y106.875 E.0078
M204 S1000
G1 X137.365 Y107.205 F10800
M204 S800
;TYPE:External perimeter
G1 F1200
G1 X138.021 Y107.119 E.02077
G1 X138.698 Y107.192 E.02134
G1 X138.865 Y107.218 E.00531
G1 X139.522 Y107.491 E.0223
G1 X140.129 Y107.948 E.02382
G1 X140.547 Y108.482 E.02128
G1 X140.893 Y109.246 E.02629
G1 X140.999 Y109.999 E.02382
G1 X140.906 Y110.753 E.02382
G1 X140.627 Y111.442 E.02332
G1 X140.164 Y112.064 E.02431
G1 X139.565 Y112.531 E.02382
G1 X138.865 Y112.828 E.02382
G1 X138.113 Y112.934 E.02382
G1 X137.359 Y112.841 E.02382
G1 X136.654 Y112.556 E.02382
G1 X136.048 Y112.099 E.02382
G1 X135.726 Y111.689 E.01634
G1 X135.537 Y111.412 E.01053
G1 X135.284 Y110.8 E.02074
G1 X135.178 Y109.999 E.02535
G1 X135.271 Y109.294 E.02229
G1 X135.556 Y108.589 E.02382
G1 X136.013 Y107.983 E.02382
G1 X136.612 Y107.515 E.02382
G1 X137.309 Y107.226 E.02365
M204 S1000
G1 X137.468 Y106.819 F10800
;WIPE_START
G1 F8640
G1 X138.021 Y107.119 E-.16645
G1 X138.698 Y107.192 E-.15717
G1 X138.865 Y107.218 E-.0391
G1 X139.522 Y107.491 E-.1642
G1 X140.129 Y107.948 E-.17543
G1 X140.283 Y108.145 E-.05766
;WIPE_END
G1 E-.04 F2100
G1 Z.6 F720
G1 X128.403 Y110.152 F10800
G1 Z.2 F720
G1 E.8 F2100
M204 S800
;TYPE:Perimeter
G1 F1200
G1 X128.36 Y110.32 E.00544
G1 X125.957 Y114.455 E.14994
G1 X125.859 Y114.58 E.00499
G1 X125.566 Y114.728 E.01029
G1 X125.467 Y114.737 E.00312
G1 X120.685 Y114.724 E.14994
G1 X120.345 Y114.609 E.01125
G1 X120.196 Y114.44 E.00707
G1 X117.815 Y110.291 E.14999
G1 X117.741 Y110.022 E.00874
G1 X117.792 Y109.776 E.00789
G1 X120.219 Y105.591 E.15168
G1 X120.408 Y105.396 E.00852
G1 X120.71 Y105.31 E.00983
G1 X125.492 Y105.323 E.14994
G1 X125.934 Y105.538 E.01543
G1 X128.361 Y109.754 E.15254
G1 X128.436 Y110.024 E.00878
G1 X128.418 Y110.094 E.00226
M204 S1000
G1 X128.055 Y110.076 F10800
M204 S800
;TYPE:External perimeter
G1 F1200
G1 X125.631 Y114.266 E.15175
G1 X125.501 Y114.357 E.00499
G1 X120.686 Y114.347 E.15098
G1 X120.572 Y114.309 E.00375
G1 X120.276 Y113.822 E.01788
G1 X118.142 Y110.104 E.13439
G1 X118.129 Y109.945 E.00499
M73 Q3 S12
G1 X120.545 Y105.781 E.15096
G1 X120.676 Y105.69 E.00499
M73 P3 R12
G1 X125.491 Y105.7 E.15098
G1 X125.654 Y105.794 E.00591
G1 X128.034 Y109.942 E.14994
G1 X128.045 Y110.017 E.00238
M204 S1000
G1 X128.36 Y110.335 F10800
;WIPE_START
G1 F8640
G1 X126.419 Y112.879 E-.76
;WIPE_END
G1 E-.04 F2100
G1 Z.6 F720
G1 X130.824 Y109.146 F10800
G1 Z.2 F720
G1 E.8 F2100
M204 S800
;TYPE:Perimeter
G1 F1200
G1 X130.492 Y108.787 E.01533
G1 X128.565 Y105.43 E.12136
G1 X128.27 Y105.021 E.01582
G1 X127.825 Y104.652 E.01812
G1 X127.421 Y104.444 E.01425
G1 X126.986 Y104.325 E.01414
G1 X126.543 Y104.282 E.01394
G1 X119 Y104.282 E.23652
G1 X118.404 Y104.199 E.01885
G1 X117.887 Y103.985 E.01756
G1 X117.435 Y103.648 E.01768
G1 X117.125 Y103.286 E.01495
G1 X113.861 Y98.45 E.18292
G1 X113.598 Y97.908 E.0189
G1 X113.487 Y97.371 E.01719
G1 X113.507 Y96.823 E.01719
G1 X113.658 Y96.296 E.01719
G1 X113.929 Y95.82 E.01719
G1 X114.307 Y95.422 E.01719
G1 X114.768 Y95.125 E.01719
G1 X115.258 Y94.951 E.01631
G1 X115.751 Y94.895 E.01557
G1 X116.43 Y94.896 E.02129
G1 X122.539 Y95.238 E.19185
G1 X122.811 Y95.315 E.00885
G1 X131.766 Y98.772 E.30098
G1 X132.217 Y99.052 E.01664
G1 X135.919 Y102.081 E.14997
G1 X136.278 Y102.448 E.01611
G1 X136.593 Y102.953 E.01865
G1 X136.782 Y103.517 E.01865
G1 X136.834 Y104.109 E.01865
G1 X136.747 Y104.698 E.01865
G1 X136.525 Y105.249 E.01865
G1 X136.232 Y105.665 E.01594
G1 X133.28 Y108.78 E.13456
G1 X132.856 Y109.115 E.01693
G1 X132.529 Y109.283 E.01153
G1 X132.071 Y109.404 E.01484
G1 X131.491 Y109.419 E.01819
G1 X131.246 Y109.37 E.00784
G1 X130.865 Y109.19 E.01322
M204 S1000
G1 X131.076 Y108.878 F10800
M204 S800
;TYPE:External perimeter
G1 F1200
G1 X130.811 Y108.586 E.01237
G1 X128.883 Y105.225 E.12148
G1 X128.552 Y104.768 E.01768
G1 X128.15 Y104.404 E.01701
G1 X127.68 Y104.132 E.01701
G1 X127.165 Y103.964 E.01701
G1 X126.604 Y103.905 E.01768
G1 X119 Y103.905 E.23842
G1 X118.529 Y103.843 E.01489
G1 X118.096 Y103.671 E.0146
G1 X117.718 Y103.4 E.0146
G1 X117.438 Y103.075 E.01346
G1 X114.174 Y98.239 E.18292
G1 X113.964 Y97.821 E.01466
G1 X113.864 Y97.374 E.01437
G1 X113.873 Y96.916 E.01437
G1 X113.991 Y96.473 E.01437
G1 X114.211 Y96.071 E.01437
G1 X114.52 Y95.733 E.01437
G1 X114.901 Y95.478 E.01437
G1 X115.332 Y95.321 E.01437
G1 X115.751 Y95.272 E.01325
G1 X116.409 Y95.272 E.02063
G1 X122.515 Y95.614 E.19173
G1 X131.63 Y99.124 E.30627
G1 X132.027 Y99.38 E.01479
G1 X135.679 Y102.371 E.14803
G1 X136.033 Y102.745 E.01615
G1 X136.286 Y103.184 E.01589
G1 X136.429 Y103.671 E.01589
G1 X136.455 Y104.177 E.01589
G1 X136.363 Y104.675 E.01589
G1 X136.156 Y105.138 E.01589
G1 X135.872 Y105.514 E.01479
G1 X133.007 Y108.52 E.13019
G1 X132.674 Y108.785 E.01336
G1 X132.416 Y108.923 E.00915
G1 X131.989 Y109.029 E.0138
G1 X131.479 Y109.042 E.016
G1 X131.132 Y108.9 E.01176
M204 S1000
G1 X130.719 Y109.045 F10800
;WIPE_START
G1 F8640
G1 X130.811 Y108.586 E-.10379
G1 X129.396 Y106.121 E-.65621
;WIPE_END
G1 E-.04 F2100
G1 Z.6 F720
G1 X132.345 Y94.858 F10800
G1 Z.2 F720
G1 E.8 F2100
M204 S800
;TYPE:Solid infill
;WIDTH:0.420663
M73 Q4 S12
G1 F1200
G1 X134.033 Y96.546 E.07498
G1 X134.105 Y97.152 E.01917
G1 X131.64 Y94.688 E.10946
G1 X131.333 Y94.54 E.01072
M73 P4 R12
G1 X131.116 Y94.698 E.00842
G1 X134.352 Y97.933 E.14372
G1 X134.502 Y98.281 E.0119
G1 X134.925 Y98.918 E.02401
G1 X135.046 Y99.061 E.00589
G1 X135.623 Y99.598 E.02475
G1 X137.876 Y101.458 E.09178
G1 X138.961 Y102.543 E.04819
G1 X140.209 Y103.835 E.0564
G1 X141.831 Y105.947 E.08365
G1 X130.808 Y94.923 E.48967
G1 X130.634 Y95.05 E.00673
G1 X130.47 Y95.12 E.00562
G1 X142.845 Y107.495 E.54968
G1 X143.063 Y107.913 E.0148
G1 X143.174 Y108.358 E.01442
G1 X130.096 Y95.28 E.58091
G1 X129.706 Y95.424 E.01306
G1 X143.288 Y109.006 E.6033
G1 X143.293 Y109.545 E.01692
G1 X136.996 Y103.248 E.27971
G1 X136.915 Y102.986 E.0086
G1 X136.84 Y102.814 E.00591
G1 X136.599 Y102.406 E.01489
G1 X136.485 Y102.255 E.00592
G1 X136.103 Y101.866 E.01716
G1 X133.394 Y99.647 E.10997
G1 X129.252 Y95.505 E.18399
G1 X128.99 Y95.551 E.00837
G1 X128.774 Y95.561 E.00679
G1 X131.649 Y98.436 E.1277
G1 X130.777 Y98.098 E.02934
G1 X128.213 Y95.534 E.11392
G1 X127.911 Y95.5 E.00953
G1 X127.54 Y95.395 E.01212
G1 X129.906 Y97.761 E.10511
G1 X129.035 Y97.424 E.02934
G1 X126.725 Y95.115 E.1026
G1 X125.834 Y94.757 E.03016
G1 X128.164 Y97.087 E.1035
G1 X127.293 Y96.75 E.02934
G1 X124.942 Y94.4 E.10439
G1 X124.051 Y94.043 E.03016
G1 X126.421 Y96.413 E.10529
G1 X125.55 Y96.076 E.02934
G1 X123.184 Y93.71 E.10509
G1 X123.068 Y93.672 E.00385
G1 X122.767 Y93.614 E.00962
G1 X122.538 Y93.599 E.00721
G1 X124.679 Y95.739 E.09509
M73 Q5 S12
G1 X123.808 Y95.402 E.02934
G1 X121.995 Y93.59 E.0805
G1 X121.46 Y93.589 E.01683
M73 P5 R12
G1 X122.936 Y95.065 E.0656
G1 X122.722 Y94.982 E.00722
G1 X122.277 Y94.94 E.01404
G1 X120.924 Y93.587 E.0601
G1 X120.388 Y93.585 E.01683
G1 X121.711 Y94.908 E.05876
G1 X121.145 Y94.877 E.0178
G1 X119.852 Y93.584 E.05742
G1 X119.317 Y93.582 E.01683
G1 X120.579 Y94.845 E.05608
G1 X120.013 Y94.813 E.0178
G1 X118.781 Y93.581 E.05474
G1 X118.245 Y93.579 E.01683
G1 X119.447 Y94.781 E.0534
G1 X118.881 Y94.75 E.0178
G1 X117.709 Y93.578 E.05206
G1 X117.174 Y93.576 E.01683
G1 X118.315 Y94.718 E.05072
G1 X117.749 Y94.686 E.0178
G1 X116.638 Y93.575 E.04938
G1 X116.102 Y93.573 E.01683
G1 X117.184 Y94.655 E.04804
G1 X116.618 Y94.623 E.0178
G1 X115.566 Y93.572 E.0467
G1 X115.031 Y93.57 E.01683
G1 X116.073 Y94.612 E.04631
G1 X115.746 Y94.612 E.01027
G1 X115.559 Y94.633 E.00591
G1 X114.495 Y93.568 E.04728
G1 X113.959 Y93.567 E.01683
G1 X115.101 Y94.709 E.05073
G1 X114.705 Y94.847 E.01317
G1 X113.423 Y93.565 E.05694
G1 X112.888 Y93.564 E.01683
G1 X114.363 Y95.04 E.06556
G1 X114.056 Y95.267 E.012
G1 X112.352 Y93.562 E.07572
G1 X111.816 Y93.561 E.01683
G1 X113.798 Y95.542 E.08802
G1 X113.715 Y95.635 E.00392
G1 X113.574 Y95.852 E.00813
G1 X111.28 Y93.559 E.10187
G1 X110.745 Y93.558 E.01683
G1 X113.39 Y96.203 E.11751
G1 X113.27 Y96.617 E.01355
G1 X110.209 Y93.556 E.13598
G1 X109.673 Y93.555 E.01683
G1 X113.206 Y97.088 E.15694
G1 X113.204 Y97.375 E.00902
G1 X113.249 Y97.665 E.00922
G1 X109.137 Y93.553 E.18265
G1 X108.602 Y93.551 E.01683
G1 X113.591 Y98.541 E.22162
G1 X114.671 Y100.155 E.061
G1 X108.066 Y93.55 E.29339
G1 X107.714 Y93.528 E.01106
G1 X107.962 Y93.819 E.01199
G1 X108.428 Y94.446 E.02456
G1 X116.409 Y102.428 E.35453
M204 S1000
;WIPE_START
G1 F8640
G1 X114.082 Y100.1 E-.76
;WIPE_END
G1 E-.04 F2100
G1 Z.6 F720
G1 X129.076 Y106.547 F10800
G1 Z.2 F720
G1 E.8 F2100
M204 S800
G1 F1200
G1 X127.198 Y104.669 E.08339
G1 X127.026 Y104.613 E.00568
G1 X126.56 Y104.565 E.01473
G1 X129.795 Y107.8 E.1437
M204 S1000
;WIPE_START
G1 F8640
G1 X127.468 Y105.473 E-.76
;WIPE_END
G1 E-.04 F2100
G1 Z.6 F720
G1 X136.923 Y103.71 F10800
G1 Z.2 F720
G1 E.8 F2100
M204 S800
G1 F1200
G1 X143.229 Y110.015 E.28011
G1 X143.128 Y110.449 E.01399
G1 X141.375 Y108.696 E.07786
G1 X141.229 Y108.332 E.01235
